packages/core/src/svgs/tokens/branded/COSMOS.svg

<svg width="24" height="24" viewBox="0 0 24 24" fill="none" xmlns="http://www.w3.org/2000/svg">
<path fill-rule="evenodd" clip-rule="evenodd" d="M11.9998 2.69282L3.75213 7.34638V16.6536L11.9998 21.3072L20.2475 16.6536V7.34638L11.9998 2.69282ZM20.8615 7.00001L11.9998 2L3.13818 7.00001V17L11.9998 22L20.8615 17V7.00001Z" fill="#BA3FD9"/>
<path fill-rule="evenodd" clip-rule="evenodd" d="M11.9964 8.4133C11.363 8.4133 10.8477 7.9094 10.8477 7.28991C10.8477 6.67047 11.363 6.1665 11.9964 6.1665C12.6298 6.1665 13.1451 6.67047 13.1451 7.28991C13.1451 7.9094 12.6298 8.4133 11.9964 8.4133ZM11.9964 6.77861C11.7081 6.77861 11.4736 7.008 11.4736 7.28991C11.4736 7.57186 11.7081 7.80121 11.9964 7.80121C12.2847 7.80121 12.5192 7.57186 12.5192 7.28991C12.5192 7.008 12.2847 6.77861 11.9964 6.77861Z" fill="#BA3FD9"/>
<path d="M11.7002 8.59941C11.7989 8.62164 11.9017 8.63341 12.0071 8.63341C12.1127 8.63341 12.2154 8.62164 12.3142 8.59937V10.7008C12.2154 10.6785 12.1127 10.6668 12.0071 10.6668C11.9017 10.6668 11.7989 10.6785 11.7002 10.7008V8.59941Z" fill="#BA3FD9"/>
<path d="M11.0097 11.091L9.14682 10.0399C9.11721 10.1346 9.07624 10.2275 9.02345 10.3168C8.97072 10.406 8.90894 10.4871 8.83984 10.5595L10.702 11.6102C10.7634 11.4142 10.87 11.2373 11.0097 11.091Z" fill="#BA3FD9"/>
<path d="M10.702 12.3898L8.83984 13.4407C8.90894 13.513 8.97077 13.5942 9.0235 13.6834C9.07629 13.7727 9.11721 13.8655 9.14682 13.9602L11.0097 12.9091C10.87 12.7628 10.7634 12.5859 10.702 12.3898Z" fill="#BA3FD9"/>
<path d="M11.7002 13.2994V15.4009C11.7989 15.3786 11.9017 15.3669 12.0073 15.3669C12.1128 15.3669 12.2155 15.3786 12.3142 15.4009V13.2994C12.2154 13.3218 12.1127 13.3334 12.0071 13.3334C11.9017 13.3334 11.7989 13.3218 11.7002 13.2994Z" fill="#BA3FD9"/>
<path d="M13.0044 12.9091L14.8673 13.9602C14.8969 13.8655 14.9379 13.7727 14.9906 13.6833C15.0434 13.5941 15.1051 13.5129 15.1743 13.4406L13.3121 12.3898C13.2506 12.5859 13.1441 12.7628 13.0044 12.9091Z" fill="#BA3FD9"/>
<path d="M13.3121 11.6102L15.1743 10.5595C15.1051 10.4871 15.0434 10.406 14.9906 10.3167C14.9378 10.2274 14.8969 10.1346 14.8673 10.0399L13.0044 11.091C13.1441 11.2373 13.2506 11.4142 13.3121 11.6102Z" fill="#BA3FD9"/>
<path fill-rule="evenodd" clip-rule="evenodd" d="M8.82381 10.2161C8.50712 10.7521 7.80293 10.9363 7.25395 10.6265C6.70501 10.3169 6.51607 9.62876 6.8328 9.09267C7.14948 8.55657 7.85376 8.37239 8.40271 8.68211C8.95164 8.99188 9.14054 9.67997 8.82381 10.2161ZM7.37522 9.39871C7.23106 9.64271 7.31706 9.95587 7.56692 10.0969C7.81674 10.2378 8.13723 10.154 8.28139 9.91001C8.42555 9.66601 8.3396 9.3528 8.08973 9.21183C7.83992 9.07085 7.51937 9.15471 7.37522 9.39871Z" fill="#BA3FD9"/>
<path fill-rule="evenodd" clip-rule="evenodd" d="M8.83507 13.8028C9.1518 14.3389 8.96286 15.0269 8.41387 15.3366C7.86498 15.6464 7.16074 15.4622 6.84401 14.9261C6.52732 14.3901 6.71622 13.702 7.26516 13.3921C7.81414 13.0825 8.51839 13.2667 8.83507 13.8028ZM7.38643 14.6201C7.53059 14.8641 7.85113 14.9479 8.10094 14.807C8.35081 14.666 8.43681 14.3528 8.29265 14.1088C8.14849 13.8648 7.82795 13.781 7.57814 13.9219C7.32827 14.0629 7.24232 14.3761 7.38643 14.6201Z" fill="#BA3FD9"/>
<path fill-rule="evenodd" clip-rule="evenodd" d="M12.0189 15.5867C12.6523 15.5867 13.1675 16.0907 13.1675 16.71C13.1675 17.3295 12.6523 17.8334 12.0189 17.8334C11.3855 17.8334 10.8701 17.3295 10.8701 16.71C10.8701 16.0907 11.3855 15.5867 12.0189 15.5867ZM12.0189 17.2213C12.3071 17.2213 12.5416 16.992 12.5416 16.71C12.5416 16.4281 12.3071 16.1988 12.0189 16.1988C11.7305 16.1988 11.496 16.4281 11.496 16.71C11.496 16.992 11.7305 17.2213 12.0189 17.2213Z" fill="#BA3FD9"/>
<path fill-rule="evenodd" clip-rule="evenodd" d="M15.1912 13.7843C15.5079 13.2482 16.2121 13.064 16.7611 13.3738C17.31 13.6835 17.4989 14.3716 17.1823 14.9077C16.8655 15.4438 16.1613 15.6279 15.6123 15.3182C15.0633 15.0084 14.8745 14.3204 15.1912 13.7843ZM16.6398 14.6016C16.784 14.3576 16.6979 14.0444 16.4481 13.9035C16.1983 13.7624 15.8777 13.8463 15.7337 14.0903C15.5895 14.3343 15.6754 14.6475 15.9253 14.7884C16.1751 14.9295 16.4957 14.8456 16.6398 14.6016Z" fill="#BA3FD9"/>
<path fill-rule="evenodd" clip-rule="evenodd" d="M15.1799 10.1971C14.8633 9.66101 15.0521 8.97297 15.6011 8.6632C16.1501 8.35348 16.8543 8.53762 17.1709 9.07371C17.4877 9.6098 17.2988 10.2979 16.7499 10.6076C16.2009 10.9174 15.4966 10.7332 15.1799 10.1971ZM16.6285 9.37975C16.4844 9.13575 16.1639 9.05194 15.9141 9.19292C15.6643 9.33389 15.5783 9.64706 15.7224 9.89106C15.8665 10.1351 16.1871 10.2189 16.4369 10.0779C16.6868 9.93696 16.7727 9.62375 16.6285 9.37975Z" fill="#BA3FD9"/>
<path fill-rule="evenodd" clip-rule="evenodd" d="M11.9964 11.4787C11.7081 11.4787 11.4736 11.7081 11.4736 11.99C11.4736 12.2719 11.7081 12.5013 11.9964 12.5013C12.2847 12.5013 12.5192 12.2719 12.5192 11.99C12.5192 11.7081 12.2847 11.4787 11.9964 11.4787ZM11.9964 13.1134C11.363 13.1134 10.8477 12.6095 10.8477 11.99C10.8477 11.3705 11.363 10.8666 11.9964 10.8666C12.6298 10.8666 13.1452 11.3705 13.1452 11.99C13.1452 12.6095 12.6298 13.1134 11.9964 13.1134Z" fill="#BA3FD9"/>
</svg>

<svg xmlns="http://www.w3.org/2000/svg" width="24" height="24" fill="none" viewBox="0 0 24 24">
    <path fill="#BA3FD9" fill-rule="evenodd" d="M12 2.693 3.752 7.346v9.308L12 21.307l8.247-4.653V7.346zM20.862 7 12 2 3.138 7v10L12 22l8.862-5z" clip-rule="evenodd"/>
    <path fill="#BA3FD9" fill-rule="evenodd" d="M11.996 8.413a1.14 1.14 0 0 1-1.148-1.123c0-.62.515-1.123 1.148-1.123.634 0 1.15.503 1.15 1.123s-.516 1.123-1.15 1.123m0-1.634a.52.52 0 0 0-.522.51c0 .283.234.512.522.512s.523-.23.523-.511a.52.52 0 0 0-.523-.511" clip-rule="evenodd"/>
    <path fill="#BA3FD9" d="M11.7 8.6a1.4 1.4 0 0 0 .614 0v2.1a1.4 1.4 0 0 0-.614 0zm-.69 2.491L9.147 10.04a1.3 1.3 0 0 1-.307.52l1.862 1.05c.061-.196.168-.373.308-.519m-.308 1.299L8.84 13.44a1.3 1.3 0 0 1 .307.52l1.863-1.05a1.3 1.3 0 0 1-.308-.52m.998.91v2.1a1.4 1.4 0 0 1 .614 0v-2.1a1.4 1.4 0 0 1-.614 0m1.304-.39 1.863 1.05a1.3 1.3 0 0 1 .307-.52l-1.862-1.05a1.3 1.3 0 0 1-.308.52m.308-1.3 1.862-1.05a1.3 1.3 0 0 1-.307-.52l-1.863 1.051c.14.146.247.323.308.52"/>
    <path fill="#BA3FD9" fill-rule="evenodd" d="M8.824 10.216a1.165 1.165 0 0 1-1.57.41 1.11 1.11 0 0 1-.421-1.533 1.165 1.165 0 0 1 1.57-.41c.549.309.738.997.42 1.533M7.375 9.4a.505.505 0 0 0 .192.698c.25.14.57.057.714-.187a.505.505 0 0 0-.191-.698.53.53 0 0 0-.715.187m1.46 4.403a1.11 1.11 0 0 1-.421 1.534 1.165 1.165 0 0 1-1.57-.41 1.11 1.11 0 0 1 .421-1.535 1.165 1.165 0 0 1 1.57.41m-1.449.817a.53.53 0 0 0 .715.187.505.505 0 0 0 .192-.698.53.53 0 0 0-.715-.187.505.505 0 0 0-.192.698m4.633.968c.633 0 1.149.504 1.149 1.123 0 .62-.516 1.123-1.15 1.123a1.14 1.14 0 0 1-1.148-1.123c0-.62.516-1.123 1.149-1.123m0 1.634a.52.52 0 0 0 .523-.511.52.52 0 0 0-.523-.511.52.52 0 0 0-.523.511c0 .282.234.511.523.511m3.172-3.437a1.165 1.165 0 0 1 1.57-.41c.549.31.738.998.421 1.534a1.165 1.165 0 0 1-1.57.41 1.11 1.11 0 0 1-.42-1.534m1.449.818a.505.505 0 0 0-.192-.699.53.53 0 0 0-.714.187.505.505 0 0 0 .191.698.53.53 0 0 0 .715-.186m-1.461-4.405a1.11 1.11 0 0 1 .421-1.534 1.165 1.165 0 0 1 1.57.41 1.11 1.11 0 0 1-.421 1.535 1.165 1.165 0 0 1-1.57-.41m1.448-.817a.53.53 0 0 0-.714-.187.505.505 0 0 0-.192.698.53.53 0 0 0 .715.187.505.505 0 0 0 .191-.698m-4.632 2.098a.52.52 0 0 0-.522.511c0 .282.234.511.522.511s.523-.23.523-.511a.52.52 0 0 0-.523-.511m0 1.634a1.14 1.14 0 0 1-1.148-1.123c0-.62.515-1.123 1.148-1.123.634 0 1.15.503 1.15 1.123s-.516 1.123-1.15 1.123" clip-rule="evenodd"/>
</svg>
